X:1
T: The Disappointed Coquette
C:
R:Reel
Q: 232
K:D
M:4/4
L:1/8
|:g2|fd ed cA Ag|fd ec d2 de|fe dc dA AB|=cA GE D2 g2|
fd ed cA Ag|fd ec d2 de|fe dc dA AB|=cA GE D2 DE|
FG AB =cA AG|Ad dc d2 de|fd ec dA AB|=cA GE D2 DE|
FG AB =cA AG|Ad dc d2 de|fd ec dA AB|=cA GE D2:|
